X: 130
T: Missa Sine nomine I / Sanctus
N: Derived from Rue1028d-Missa_Sine_nomine_I-Sanctus.krn
C: Pierre de la Rue
%%abc-version 2.0
%%abcx-abcm2ps-target-version 5.9.1 (29 Sep 2008)
%%abc-creator hum2abc beta
%%abcx-conversion-date 2019/02/17 08:01:15
%%abc-edited-by Jesse Rodin
%%abc-edited-by Chris Gage 06-10-2013
%%abcx-initial-encoding-date 2013/08/05/
%%humdrum-veritas 2921479886
%%humdrum-veritas-data 997313390
%%linebreak <none>
%%barnumbers 0
L: 1/4
M: 2/1
Q: 1/2=120
%%staves [1 2 3 4]
V: 1 clef=treble
V: 2 clef=treble-8
V: 3 clef=treble-8
V: 4 clef=bass
K: F
[V:1] z8 | 
[V:2] G8 | 
[V:3] z8 | 
[V:4] z8 | 
[V:1] G8 | 
[V:2] B4c4 | 
[V:3] z8 | 
[V:4] z8 | 
[V:1] B4c4 | 
[V:2] d4_e4 | 
[V:3] z8 | 
[V:4] z8 | 
[V:1] d8 | 
[V:2] d4z2d2- | 
[V:3] G8 | 
[V:4] G,8 | 
[V:1] z4c4 | 
[V:2] de/f/g4^f2 | 
[V:3] B4c4 | 
[V:4] G,4A,4 | 
[V:1] B6AG | 
[V:2] g6fe | 
[V:3] d8- | 
[V:4] G,6F,E, | 
[V:1] A4B4 | 
[V:2] f4f4 | 
[V:3] d8 | 
[V:4] D,4D,4 | 
[V:1] c8 | 
[V:2] g8 | 
[V:3] _e6_e2 | 
[V:4] C,8 | 
[V:1] B4A4 | 
[V:2] f8 | 
[V:3] d4c4 | 
[V:4] z4F,4 | 
[V:1] B2G4FE | 
[V:2] d8 | 
[V:3] B8 | 
[V:4] G,8 | 
[V:1] F4z2F2 | 
[V:2] z2d4d2 | 
[V:3] A8- | 
[V:4] D,8 | 
[V:1] E2D2E4 | 
[V:2] c2d4^c2 | 
[V:3] A8- | 
[V:4] A,,8 | 
[V:1] D4z2A2- | 
[V:2] d4f4 | 
[V:3] A8 | 
[V:4] D,8 | 
[V:1] AB/c/d4c2 | 
[V:2] e2d2e4 | 
[V:3] z4A4 | 
[V:4] z8 | 
[V:1] d2B4AG | 
[V:2] d8 | 
[V:3] B4B4 | 
[V:4] G,8 | 
[V:1] AGc3BAG | 
[V:2] f4e2f2- | 
[V:3] c3Bc2d2- | 
[V:4] F,3G,A,2D,2 | 
[V:1] A2G4^F2 | 
[V:2] fedcd4 | 
[V:3] dcB2A4 | 
[V:4] F,2G,2D,4 | 
[V:1] G8 | 
[V:2] d8- | 
[V:3] G8 | 
[V:4] G,,8 | 
[V:1] z8 | 
[V:2] d8- | 
[V:3] A4A2B2- | 
[V:4] D,3E,F,2G,2 | 
[V:1] z8 | 
[V:2] d8- | 
[V:3] B2A2G2B2- | 
[V:4] D,4z2G,2- | 
[V:1] z8 | 
[V:2] d8 | 
[V:3] B2AGB2A2- | 
[V:4] G,2F,E,D,4 | 
[V:1] z8 | 
[V:2] z8 | 
[V:3] A2G2B2A2- | 
[V:4] C,D,E,F,D,4 | 
[V:1] z8 | 
[V:2] z8 | 
[V:3] A2GABcB2 | 
[V:4] C,D,E,F,D,4 | 
[V:1] z8 | 
[V:2] z8 | 
[V:3] A2G4^F2 | 
[V:4] C,2B,,2A,,4 | 
[V:1] B6B2 | 
[V:2] d4edg2- | 
[V:3] G8 | 
[V:4] G,,8 | 
[V:1] A4G4- | 
[V:2] g2^f2g4 | 
[V:3] z8 | 
[V:4] z8 | 
[V:1] G2FEDEFG | 
[V:2] G3ABcd_e | 
[V:3] z8 | 
[V:4] z8 | 
[V:1] ABG2FGAB | 
[V:2] c2Bcdefg | 
[V:3] z8 | 
[V:4] z8 | 
[V:1] cdB2A2d2- | 
[V:2] e2d4f2 | 
[V:3] z8 | 
[V:4] z8 | 
[V:1] d2^c2d4 | 
[V:2] e4d4 | 
[V:3] z8 | 
[V:4] z8 | 
[V:1] z2D4D2 | 
[V:2] z2f4f2 | 
[V:3] A8- | 
[V:4] D,4D,E,F,G, | 
[V:1] C2F3ED2- | 
[V:2] e2d2f4 | 
[V:3] A4A4 | 
[V:4] A,2D,3C,D,2 | 
[V:1] D2^C2D2F2- | 
[V:2] e4d4- | 
[V:3] A8- | 
[V:4] A,,4D,4- | 
[V:1] F2EDE2F2 | 
[V:2] d4c4 | 
[V:3] A8 | 
[V:4] D,2C,B,,A,,4 | 
[V:1] G8 | 
[V:2] d8 | 
[V:3] B8 | 
[V:4] G,,4G,4 | 
[V:1] A4c4 | 
[V:2] z2f2e2f2 | 
[V:3] c8 | 
[V:4] F,4A,4 | 
[V:1] B8 | 
[V:2] g3fd2e2 | 
[V:3] d4B4 | 
[V:4] G,8 | 
[V:1] A4z2A2- | 
[V:2] f8 | 
[V:3] c3AB2c2 | 
[V:4] F,4z2F,2- | 
[V:1] A2A2G2c2 | 
[V:2] z8 | 
[V:3] A2c2B2A2 | 
[V:4] F,2F,2G,2F,2 | 
[V:1] B2A4G2 | 
[V:2] z2f4e2 | 
[V:3] B2c2A2c2- | 
[V:4] G,2A,2F,2C,2 | 
[V:1] A2G2A3c | 
[V:2] f2g2c3d | 
[V:3] cAB2c2A2 | 
[V:4] z2G,2F,2A,2 | 
[V:1] B2A4B2- | 
[V:2] e2f4B2- | 
[V:3] B2c2A2d2- | 
[V:4] G,2F,4G,2 | 
[V:1] B2A2c3B | 
[V:2] B2f4d2 | 
[V:3] d2c3AB2 | 
[V:4] B,2F,4G,2 | 
[V:1] AGG4^F2 | 
[V:2] _e2c2d4 | 
[V:3] cBAGA4 | 
[V:4] C,2_E,2D,4 | 
[V:1] G8 ||  
[V:2] d8 ||  
[V:3] G8 ||  
[V:4] G,,8 ||  
[V:1]  [K:F] [K:clef=treble][M:2/1]D4D2EF | 
[V:2]  [K:F] [K:clef=treble-8][M:2/1]z8 | 
[V:3]  [K:F] [K:clef=treble-8][M:2/1]z8 | 
[V:4]  [K:F] [K:clef=bass][M:2/1]z8 | 
[V:1] GAB4A2 | 
[V:2] G4G2AB | 
[V:3] z8 | 
[V:4] z8 | 
[V:1] G4G2AB | 
[V:2] cd_e4d2 | 
[V:3] z8 | 
[V:4] z8 | 
[V:1] cd_e4d2 | 
[V:2] c4c2de | 
[V:3] z8 | 
[V:4] z8 | 
[V:1] c4F2B2- | 
[V:2] fga4g2- | 
[V:3] z8 | 
[V:4] z8 | 
[V:1] BGA2d3B | 
[V:2] g2c2f3d | 
[V:3] z8 | 
[V:4] z8 | 
[V:1] c2d2z4 | 
[V:2] e2d2g3e | 
[V:3] z8 | 
[V:4] z4B,3G, | 
[V:1] z8 | 
[V:2] f2g2c3A | 
[V:3] z8 | 
[V:4] A,2G,2E,3C, | 
[V:1] z8 | 
[V:2] B2c2A3F | 
[V:3] z8 | 
[V:4] D,2C,2F,3D, | 
[V:1] z4A3F | 
[V:2] G2F2f3d | 
[V:3] z8 | 
[V:4] E,2F,2z4 | 
[V:1] G2A2F3D | 
[V:2] e2f2d3B | 
[V:3] z8 | 
[V:4] z8 | 
[V:1] E2D2A4 | 
[V:2] c2d2z4 | 
[V:3] z8 | 
[V:4] z4F,3D, | 
[V:1] G2F3DE2 | 
[V:2] z8 | 
[V:3] z8 | 
[V:4] E,2D,2G,3E, | 
[V:1] D4G3E | 
[V:2] z4B3G | 
[V:3] z8 | 
[V:4] F,2G,3F,E,2 | 
[V:1] F2G2D2G2- | 
[V:2] A2G2f3d | 
[V:3] z8 | 
[V:4] D,2E,2F,2C,2- | 
[V:1] GAF2E4 | 
[V:2] e2d4^c2 | 
[V:3] z8 | 
[V:4] C,2D,2A,4 | 
[V:1] D4z4 | 
[V:2] d8 | 
[V:3] z8 | 
[V:4] z2D,3E,F,2 | 
[V:1] z8 | 
[V:2] z2A3Bc2 | 
[V:3] z8 | 
[V:4] E,2D,2F,4 | 
[V:1] z8 | 
[V:2] B2A2c4 | 
[V:3] z8 | 
[V:4] G,2A,3B,C2 | 
[V:1] z8 | 
[V:2] d2e3fg2 | 
[V:3] z8 | 
[V:4] B,2C3B,G,2 | 
[V:1] z2B3cd2 | 
[V:2] f2g3fd2 | 
[V:3] z8 | 
[V:4] A,2G,3A,B,2 | 
[V:1] c2d3cA2 | 
[V:2] e2d3ef2 | 
[V:3] z8 | 
[V:4] A,2B,3A,F,2 | 
[V:1] B2A3Bc2 | 
[V:2] e2f3ec2 | 
[V:3] z8 | 
[V:4] G,2F,3G,A,2 | 
[V:1] B2c3BG2 | 
[V:2] d2c4B2 | 
[V:3] z8 | 
[V:4] G,2A,2F,2G,2 | 
[V:1] A2G4^F2 | 
[V:2] cBAGA4 | 
[V:3] z8 | 
[V:4] F,2G,2D,4 | 
[V:1] G4z4 | 
[V:2] G4z4 | 
[V:3] z8 | 
[V:4] G,,8- | 
[V:1] B8- | 
[V:2] g6fe | 
[V:3] z8 | 
[V:4] G,,8 | 
[V:1] B4B4 | 
[V:2] d2g2d2g2 | 
[V:3] z8 | 
[V:4] z8 | 
[V:1] A8- | 
[V:2] f2d2f2ed | 
[V:3] z8 | 
[V:4] D,6C,B,, | 
[V:1] A8 | 
[V:2] c2d2e2f2 | 
[V:3] z8 | 
[V:4] A,,2D,2A,,2D,2 | 
[V:1] z4G4- | 
[V:2] edcBAGB2- | 
[V:3] z8 | 
[V:4] C,2A,,2C,2B,,A,, | 
[V:1] G4A4 | 
[V:2] B2G4^F2 | 
[V:3] z8 | 
[V:4] G,,2B,,2A,,4 | 
[V:1] B3cd_ed2 | 
[V:2] G3ABcd2 | 
[V:3] z8 | 
[V:4] G,,8 | 
[V:1] c2B4A2 | 
[V:2] _edcBc4 | 
[V:3] z8 | 
[V:4] z8 | 
[V:1] B8 | 
[V:2] B3cd_ed2- | 
[V:3] z8 | 
[V:4] G,6F,E, | 
[V:1] z8 | 
[V:2] d2cBA4 | 
[V:3] z8 | 
[V:4] D,2G,4^F,2 | 
[V:1] z4B4- | 
[V:2] G8 | 
[V:3] z8 | 
[V:4] G,4z2G,2- | 
[V:1] B2B2A2G2 | 
[V:2] z8 | 
[V:3] z8 | 
[V:4] G,2G,2F,2G,2- | 
[V:1] B3cA2G2 | 
[V:2] g3ef2ed | 
[V:3] z8 | 
[V:4] G,2G,2D,2E,2- | 
[V:1] B4c4 | 
[V:2] cBB4A2 | 
[V:3] z8 | 
[V:4] E,F,D,2C,4 | 
[V:1] d8 | 
[V:2] B8 | 
[V:3] z8 | 
[V:4] B,,8 | 
[V:1] c3BcBAG | 
[V:2] c3de2f2- | 
[V:3] z8 | 
[V:4] F,4C,2D,2- | 
[V:1] F2B4A2 | 
[V:2] f2edc4 | 
[V:3] z8 | 
[V:4] D,2C,B,,F,4 | 
[V:1] B4B2c2- | 
[V:2] B2d4_e2 | 
[V:3] z8 | 
[V:4] B,,3C,D,2C,2 | 
[V:1] c2A2B4 | 
[V:2] c2f4B2 | 
[V:3] z8 | 
[V:4] F,4B,,2_E,2- | 
[V:1] G2A4F2 | 
[V:2] c4A2d2- | 
[V:3] z8 | 
[V:4] E,2C,2D,4 | 
[V:1] G2E4D2- | 
[V:2] d2G2c2d2- | 
[V:3] z8 | 
[V:4] G,,2C,3A,,B,,2 | 
[V:1] D2G4^F2 | 
[V:2] dcB2A4 | 
[V:3] z8 | 
[V:4] G,,4D,4 | 
[V:1] G8 ||  
[V:2] G8 ||  
[V:3] z8 ||  
[V:4] G,,8 ||  
[V:1]  [K:F] [K:clef=treble][M:2/1]G8- | 
[V:2]  [K:F] [K:clef=treble-8][M:2/1]d8- | 
[V:3]  [K:F] [K:clef=treble-8][M:2/1]B8- | 
[V:4]  [K:F] [K:clef=bass][M:2/1]G,8- | 
[V:1] G4E4 | 
[V:2] d4g4 | 
[V:3] B4c4 | 
[V:4] G,4C,4 | 
[V:1] E8 | 
[V:2] g8- | 
[V:3] c8 | 
[V:4] C,8 | 
[V:1] E4A4- | 
[V:2] g4f4 | 
[V:3] c8 | 
[V:4] C,4F,4- | 
[V:1] A4F4 | 
[V:2] f8 | 
[V:3] d8- | 
[V:4] F,4B,,4 | 
[V:1] F8 | 
[V:2] d4B4 | 
[V:3] d8 | 
[V:4] B,,4B,4- | 
[V:1] F4B4- | 
[V:2] f4g4- | 
[V:3] d8- | 
[V:4] B,4G,4 | 
[V:1] B4G4 | 
[V:2] g2G2G4- | 
[V:3] d4e4 | 
[V:4] G,6C,2 | 
[V:1] G3AB2G2- | 
[V:2] G4g4- | 
[V:3] e8- | 
[V:4] C,4z4 | 
[V:1] G2c3=B=B2 | 
[V:2] g4g4 | 
[V:3] e4d4 | 
[V:4] C,4G,4 | 
[V:1] c8 | 
[V:2] e6f2 | 
[V:3] c4z2c2- | 
[V:4] A,6F,2 | 
[V:1] z2c4A2 | 
[V:2] f2edc4 | 
[V:3] c2A2A4 | 
[V:4] F,8 | 
[V:1] A6B2- | 
[V:2] z4f4- | 
[V:3] d8 | 
[V:4] z2D,4C,B,, | 
[V:1] B2AGA4 | 
[V:2] f4f4 | 
[V:3] c8- | 
[V:4] F,8 | 
[V:1] A2c3Ac2 | 
[V:2] f8 | 
[V:3] c4A4 | 
[V:4] F,4F,4 | 
[V:1] B2A2d4 | 
[V:2] B2f2d2f2- | 
[V:3] d3cB2A2- | 
[V:4] G,2F,2G,2D,2- | 
[V:1] d2c4BA | 
[V:2] fde2c4 | 
[V:3] A2G4F2 | 
[V:4] D,B,,C,2A,,4 | 
[V:1] B8 | 
[V:2] z4d3e | 
[V:3] G8 | 
[V:4] G,,8 | 
[V:1] z8 | 
[V:2] f2d3efg | 
[V:3] A8- | 
[V:4] D,3E,F,2D,2- | 
[V:1] z8 | 
[V:2] e3df2ed | 
[V:3] A8 | 
[V:4] D,2C,2D,2A,,2 | 
[V:1] z8 | 
[V:2] c4z2c2 | 
[V:3] A3Bc2A2- | 
[V:4] A,,8 | 
[V:1] z8 | 
[V:2] d4c4- | 
[V:3] A2G2A2E2 | 
[V:4] B,,4A,,4- | 
[V:1] A3Bc2A2- | 
[V:2] c8 | 
[V:3] E8 | 
[V:4] A,,4A,,4 | 
[V:1] A2G2A2E2 | 
[V:2] B4c4- | 
[V:3] z4E4- | 
[V:4] z4C,4- | 
[V:1] G8 | 
[V:2] c8 | 
[V:3] E4E4 | 
[V:4] C,4C,4 | 
[V:1] F8 | 
[V:2] A4d4 | 
[V:3] A8- | 
[V:4] D,8 | 
[V:1] E4E2A2- | 
[V:2] c8 | 
[V:3] A8 | 
[V:4] A,,8 | 
[V:1] A2G2A4 | 
[V:2] d4f3d | 
[V:3] B4A4 | 
[V:4] z4F,4 | 
[V:1] B2c2A2d2- | 
[V:2] d2e2c2d2 | 
[V:3] G4A4 | 
[V:4] G,2C,2F,2D,2 | 
[V:1] d2^c2d4 | 
[V:2] e4d4- | 
[V:3] z4A4 | 
[V:4] A,4D,4 | 
[V:1] z4d4 | 
[V:2] d4z4 | 
[V:3] B2A2B4 | 
[V:4] z2D,2G,4 | 
[V:1] c2A4G2 | 
[V:2] z8 | 
[V:3] A4B2c2 | 
[V:4] A,2F,4E,2 | 
[V:1] A3BcBAG | 
[V:2] z4G4 | 
[V:3] A2d4c2 | 
[V:4] F,2D,2_E,4 | 
[V:1] F2d4d2 | 
[V:2] A4f4 | 
[V:3] d8 | 
[V:4] D,8 | 
[V:1] c3BA2G2 | 
[V:2] e3dc2B2 | 
[V:3] z8 | 
[V:4] z8 | 
[V:1] F8 | 
[V:2] A8 | 
[V:3] d8 | 
[V:4] D,8 | 
[V:1] G8 | 
[V:2] G4G4 | 
[V:3] B4c4 | 
[V:4] _E,4E,4 | 
[V:1] F3GABcB | 
[V:2] A4G2A2- | 
[V:3] d4d2c2- | 
[V:4] D,3C,B,,2A,,2 | 
[V:1] AGG4^F2 | 
[V:2] A2d3cBA | 
[V:3] cBAGA4 | 
[V:4] F,2G,2D,4 | 
[V:1] G8 ||  
[V:2] B8 ||  
[V:3] G8 ||  
[V:4] G,,8 ||  
[V:1]  [K:F] [K:clef=treble][M:2/1]z8 | 
[V:2]  [K:F] [K:clef=treble-8][M:2/1]z8 | 
[V:3]  [K:F] [K:clef=treble-8][M:2/1]A4BABc | 
[V:4]  [K:F] [K:clef=bass][M:2/1]D,8 | 
[V:1] z8 | 
[V:2] z8 | 
[V:3] d4c4 | 
[V:4] D,4E,D,E,F, | 
[V:1] z8 | 
[V:2] z8 | 
[V:3] B4z2A2 | 
[V:4] G,4F,4 | 
[V:1] z8 | 
[V:2] z8 | 
[V:3] BABcd4 | 
[V:4] E,4z2D,2 | 
[V:1] z8 | 
[V:2] z8 | 
[V:3] c2A2B4 | 
[V:4] E,D,E,F,G,4 | 
[V:1] z8 | 
[V:2] z8 | 
[V:3] A4z2G2 | 
[V:4] F,2D,2E,4 | 
[V:1] z8 | 
[V:2] z8 | 
[V:3] AGABc4 | 
[V:4] D,4z2C,2 | 
[V:1] z8 | 
[V:2] z8 | 
[V:3] B4A2c2- | 
[V:4] D,C,D,E,F,4 | 
[V:1] z8 | 
[V:2] z8 | 
[V:3] cBG2F4 | 
[V:4] E,4D,2F,2- | 
[V:1] z8 | 
[V:2] z8 | 
[V:3] c4d4 | 
[V:4] F,E,C,2B,,4 | 
[V:1] z8 | 
[V:2] z8 | 
[V:3] c2A4c2 | 
[V:4] F,8 | 
[V:1] z8 | 
[V:2] z8 | 
[V:3] B4A4 | 
[V:4] G,4F,2D,2- | 
[V:1] z8 | 
[V:2] z8 | 
[V:3] d4c2B2- | 
[V:4] D,2F,2E,2D,2- | 
[V:1] z8 | 
[V:2] z8 | 
[V:3] BAA4G2 | 
[V:4] D,A,,C,2B,,4 | 
[V:1] z8 | 
[V:2] z8 | 
[V:3] A4z2A2 | 
[V:4] A,,2D,2C,2A,,2 | 
[V:1] z8 | 
[V:2] z8 | 
[V:3] B2c2A4 | 
[V:4] z2A,,2D,2C,2 | 
[V:1] z8 | 
[V:2] z8 | 
[V:3] z2A2B2c2 | 
[V:4] A,,2C,2B,,2A,,2 | 
[V:1] z8 | 
[V:2] z8 | 
[V:3] A2c2B2A2- | 
[V:4] z2A,,2B,,2C,2 | 
[V:1] z8 | 
[V:2] z8 | 
[V:3] AGE2F2D2 | 
[V:4] A,,4z2D,2 | 
[V:1] z8 | 
[V:2] z8 | 
[V:3] z2A2B2c2 | 
[V:4] E,2F,2D,2E,2 | 
[V:1] z8 | 
[V:2] z8 | 
[V:3] A2d4^c2 | 
[V:4] F,2G,2E,4 | 
[V:1] z8 ||  
[V:2] z8 ||  
[V:3] d8 ||  
[V:4] D,8 ||  
[V:1]  [K:F] [K:clef=treble][M:2/1]z4A4 | 
[V:2]  [K:F] [K:clef=treble-8][M:2/1]d8 | 
[V:3]  [K:F] [K:clef=treble-8][M:2/1]z8 | 
[V:4]  [K:F] [K:clef=bass][M:2/1]z8 | 
[V:1] BABcd4 | 
[V:2] d4d4 | 
[V:3] z8 | 
[V:4] z8 | 
[V:1] c4B4 | 
[V:2] edefg4 | 
[V:3] z8 | 
[V:4] z8 | 
[V:1] z2A2BABc | 
[V:2] f4e4 | 
[V:3] z8 | 
[V:4] z8 | 
[V:1] d4c2A2 | 
[V:2] z2d2edef | 
[V:3] z8 | 
[V:4] z8 | 
[V:1] B3GA2d2- | 
[V:2] g4f2d2 | 
[V:3] z8 | 
[V:4] z8 | 
[V:1] d2c2d2A2- | 
[V:2] e4d4 | 
[V:3] z8 | 
[V:4] z8 | 
[V:1] A2B2c2A2- | 
[V:2] z2d2e2f2- | 
[V:3] z8 | 
[V:4] z8 | 
[V:1] A2GFE4 | 
[V:2] fed4^c2 | 
[V:3] z8 | 
[V:4] z8 | 
[V:1] z2D3EFG | 
[V:2] d8 | 
[V:3] z8 | 
[V:4] z8 | 
[V:1] A2B3Ad2- | 
[V:2] z2G3ABc | 
[V:3] z8 | 
[V:4] z8 | 
[V:1] d2c4B2- | 
[V:2] d2e3dg2- | 
[V:3] z8 | 
[V:4] z8 | 
[V:1] BAGFG4 | 
[V:2] g2f4e2 | 
[V:3] z8 | 
[V:4] z8 | 
[V:1] F4z2F2- | 
[V:2] f8 | 
[V:3] z8 | 
[V:4] z8 | 
[V:1] FEFDF2D2 | 
[V:2] z2d3cdB | 
[V:3] z8 | 
[V:4] z8 | 
[V:1] FEFDF2D2 | 
[V:2] d2A2dcdB | 
[V:3] z8 | 
[V:4] z8 | 
[V:1] FGAG/A/B2A2- | 
[V:2] defe/f/g2d2- | 
[V:3] z8 | 
[V:4] z8 | 
[V:1] A2G4^F2 | 
[V:2] dcB2A4 | 
[V:3] z8 | 
[V:4] z8 | 
[V:1] G8 |]  
[V:2] G8 |]  
[V:3] z8 |]  
[V:4] z8 |]  



